!!!COM: Bach, Johann Sebastian
!!!OTL: Sinfonia No. 1; in C major; BWV 787
!! Three-part sinfonia
!! Bach-Gesellschaft edition, p.19
!! Performance duration: 1:01; performance tempo: 82.6 quarter-notes per minute.
!! (Andras Schiff, piano, "Two-Part Inventions BWV 772a-786; Three-part
!! Inventions BWV 787-801" Decca 411 974-2)
**kern	**kern	**kern
*staff2	*staff1	*staff1
*M4/4	*M4/4	*M4/4
*MM82.6	*MM82.6	*MM82.6
*C:	*C:	*C:
=1	=1	=1
4C	1r	16r
.	.	16g
.	.	16a
.	.	16b
8r	.	16cc
.	.	16dd
8c	.	16ee
.	.	16ff
8B	.	16gg
.	.	16ff
8G	.	16gg
.	.	16aa
8A	.	16ff
.	.	16aa
8B	.	16gg
.	.	16ff
=2	=2	=2
4c	16r	[2ee
.	16c	.
.	16d	.
.	16e	.
8r	16f	.
.	16g	.
8B	16a	.
.	16b	.
8A	16cc	4ee]
.	16b	.
8G	16cc	.
.	16dd	.
8A	16cc	4ff#
.	16ee	.
8D	16dd	.
.	16cc	.
=3	=3	=3
16GG	8b	8gg
16G	.	.
16A	[8dd	8ffn
16B	.	.
16c	8dd]	4ee
16d	.	.
16e	[8cc	.
16f	.	.
16g	4cc]	8dd
16f	.	.
16g	.	16ee
16a	.	16ff
16f	[4b	[4dd
16a	.	.
16g	.	.
16f	.	.
=4	=4	=4
16e	4b]	8dd]
16f	.	.
16e	.	16gg
16d	.	16ff
16c	16r	[4ee
16B	16dd	.
16A	16cc	.
16G	16b	.
16F	4.a	8ee]
16G	.	.
16F	.	8ee
16E	.	.
16F	.	[4dd
16D	.	.
16E	8a	.
16F	.	.
=5	=5	=5
16E	8g	4.dd]
16GG	.	.
16AA	8f	.
16BB	.	.
16C	4e	.
16D	.	.
16E	.	[8cc
16F	.	.
16G	[2d	8cc]
16F	.	.
16G	.	16b
16A	.	16a
16F	.	16b
16A	.	16cc
16G	.	16dd
16F	.	16b
=6	=6	=6
[2E	16d]	[4g
.	16f	.
.	16e	.
.	16d	.
.	16c	16g]
.	16B	16cc
.	16A	16dd
.	16G	16ee
4E]	16F	16a
.	16G	16b
.	16F	16a
.	16E	16b
4D	16F	8.bM
.	16D	.
.	16E	.
.	16F	32a
.	.	32b
=7	=7	=7
16C	4E	8cc
16D	.	.
16C	.	8g
16BB	.	.
16AA	8r	[4cc
16GG	.	.
16FF#	8e	.
16EE	.	.
16DD	4f#	8cc]
16E	.	.
16D	.	16bM
16C	.	16a
16BB	16r	[4dd
16AA	16cc	.
16GG	16b	.
16FF#	16a	.
=8	=8	=8
16EE	[4g	16dd]
16Fn	.	16b
16E	.	16cc
16D	.	16dd
16C	16g]	[4ee
16BB	16g	.
16AA	16cc	.
16GG	16b	.
16FF#	4cc	8ee]
16DD	.	.
16EE	.	[8aa
16FF#	.	.
16GG	4b	8aa]
16AA	.	.
16BB	.	[8gg
16C	.	.
=9	=9	=9
16D	[2a	8gg]
16C	.	.
16D	.	16ff#
16E	.	16ee
16C	.	16ff#
16E	.	16gg
16D	.	16aa
16C	.	16ff#
4BB	16a]	[4dd
.	16cc	.
.	16b	.
.	16a	.
[4B	16g	16dd]
.	16f#	16gg
.	16e	16aa
.	16d	16bb
=10	=10	=10
4B]	16c	16ee
.	16d	16ff#
.	16c	16ee
.	16B	16ff#
4A	16c	8.ff#
.	16A	.
.	16B	.
.	16c	32ee
.	.	32ff#
8E	[4B	16gg
.	.	16aa
8D	.	16gg
.	.	16ff#
4C	16B]	16ee
.	16B	16dd
.	16A	16cc
.	16G	16b
=11	=11	=11
16D	8F#	16a
16G	.	16b
16F#	8r	16a
16E	.	16g
16D	4r	16a
16C	.	16f#
16BB	.	16g
16AA	.	16a
16GG	16r	[4b
16AA	16d	.
16GG	16e	.
16FFn	16fn	.
16GG	[4e	16b]
16EE	.	16g
16FF	.	16a
16GG	.	16b-
=12	=12	=12
8CC#	16e]	16a
.	16r	16e
8D	8r	16f
.	.	16g
8C#	4r	16a
.	.	16b
8BB	.	16cc#
.	.	16dd
8AA	8r	16ee
.	.	16dd
8G	8A	16ee
.	.	16ff
8F	8B	16ee
.	.	16bb-
8E	8c#	16aa
.	.	16gg
=13	=13	=13
8D	16d	16ff
.	16d	16gg
8r	16e	16ff
.	16f	16ee
4r	16g	16dd
.	16a	16cc#
.	16b	16dd
.	16cc#	16ee
16r	16dd	4ff
16g	16cc#	.
16f	16dd	.
16e	16ee	.
16d	16ccn	4ff#
16c	16ee-	.
16B-	16dd	.
16A	16cc	.
=14	=14	=14
16G	16b-	4gg
16C	16a	.
16D	16b-	.
16E	16cc	.
16F	16a	[4ffn
16G	16cc	.
16A	16b-	.
16B-	16a	.
16c	4.g	8ff]
16B-	.	.
16c	.	16eeM
16d	.	16dd
16B-	.	[4ee
16d	.	.
16c	8g	.
16B-	.	.
=15	=15	=15
16A	4f	8ee]
16G	.	.
16A	.	[8dd
16Bn	.	.
16c	8e	8dd]
16d	.	.
16e	8r	[8cc
16f	.	.
16g	2r	8cc]
16f	.	.
16g	.	16bM
16a	.	16a
16f	.	8b
16a	.	.
16g	.	8dd
16f	.	.
=16	=16	=16
4e	16r	[4gg
.	16f	.
.	16g	.
.	16a	.
4r	16b	16gg]
.	16cc	16aa
.	16dd	16ff
.	16ee	16gg
16r	16ff	4aa
16cc	16ee	.
16b	16ff	.
16a	16gg	.
16g	16ff	4bb
16f	16aa	.
16e	16gg	.
16d	16ff	.
=17	=17	=17
16c	8ee	4ccc
16d	.	.
16c	[8aa	.
16B-	.	.
16c	8aa]	4bb-
16A	.	.
16B-	[8gg	.
16c	.	.
16F	16gg]	4aa
16G	16cc	.
16F	16dd	.
16E	16ee	.
16D	[4ff	16r
16C	.	16ee
16BBn	.	16dd
16AA	.	16cc
=18	=18	=18
16GG	4ff]	16b
16A	.	16dd
16G	.	16ee
16F	.	16ff
16E	16r	[2gg
16D	16ff	.
16C	16ee	.
16BB-	16dd	.
16AA	16cc	.
16B-	16dd	.
16A	16cc	.
16G	16b-	.
16F	[4a	16gg]
16E	.	16cc
16D	.	16ff
16C	.	16ee
=19	=19	=19
16BB	8a]	4ff
16GG	.	.
16AA	[8dd	.
16BB	.	.
16C	8dd]	4ee
16D	.	.
16E	[8cc	.
16F	.	.
16G	8cc]	[2dd
16F	.	.
16G	16b	.
16A	16a	.
16F	16b	.
16A	16cc	.
16G	16dd	.
16F	16b	.
=20	=20	=20
8E	4g	16dd]
.	.	16ff
16F	.	16ee
16G	.	16dd
8A	16r	2cc
.	16b-	.
8C	16a	.
.	16g	.
8D	16f	.
.	16g	.
16E	16f	.
16F	16e	.
8G	16f	4bn
.	16d	.
8GG	16e	.
.	16f	.
=21	=21	=21
1C;	1e;	1cc;
==	==	==
*-	*-	*-
